X:1
T:017 - O Amor de Deus
T:Letra: Stuart Edmund McNair (1867-1959)
T:Música: Philip Paul Bliss (1838-1876)
M:2/4
L:1/8
K:Bb
V:1
"Bb"d>d cB | FB B2 | "F7"c>d cF | "Bb"d3 z | "Eb"ee ee | "Bb"ed dd | "C7"cG cd | "F7"c3 z || "Bb"d>d cB | FB BB | "F"c>d cF | "Bb"d3 z | "Eb"e>d cB | AG ce | "Bb/F"d>e "F7"dc | "Bb"B3 z |]
w: 1.~De-cor-ri-das e-ras são,  Des-de queaos ju-deus Cris-to fez pro-cla-ma-ção Do gran-dea-mor de Deus. Que pro-fun-doa-mor se vi-a Quan-doa-qui an-dou! Ter-na, san-ta sim-pa-ti-a E-le nos mos-trou! 
w: 2.~Vei-oaos ce-gos vis-ta dar, Luz nas tre-vas ser; Pe-ca-do-res quis sal-var, Per-di-dos re-co-lher.  
w: 3.~Nun-caos po-bres des-pre-zou, Sem-preos re-ce-beu; Pa-ga sem-pre re-cu-sou; De gra-ça tu-do deu.  
w: 4.~Tem-pos já pas-sa-dos são, Cris-too mes-mo é; Vi-da, vis-ta, sal-va-ção, Ob-têm-se pe-la fé. 
W: 
W: 
W: 1. Decorridas eras são, 
W: Desde que aos judeus
W: Cristo fez proclamação
W: Do grande amor de Deus.
W: 
W:    (Estribilho)
W:    Que profundo amor se via
W:    Quando aqui andou!
W:    Terna, santa simpatia
W:    Ele nos mostrou!  
W:         
W: 2. Veio aos cegos vista dar,
W: Luz nas trevas ser;
W: Pecadores quis salvar,
W: Perdidos recolher.
W: 
W: 
W: 
W: 3. Nunca os pobres desprezou,
W: Sempre os recebeu;
W: Paga sempre recusou;
W: De graça tudo deu.
W: 
W: 4. Tempos já passados são,
W: Cristo o mesmo é;
W: Vida, vista, salvação,
W: Obtêm-se pela fé.
W: 				         
W:           





